web/ui/src/assets/svgs/logo/main.svg

<svg height="65" viewBox="0 0 232 65" width="232" xmlns="http://www.w3.org/2000/svg" xmlns:xlink="http://www.w3.org/1999/xlink"><mask id="a" fill="#fff"><path d="m0 .45967078h22.641358v63.39557612h-22.641358z" fill="#fff" fill-rule="evenodd"/></mask><g fill="none" fill-rule="evenodd"><g fill="#012c53"><path d="m11.1465021 6.24207819c0-3.20473251 2.6471193-5.78240741 5.781893-5.78240741 3.2047325 0 5.7129629 2.5776749 5.7129629 5.78240741 0 3.13477366-2.5082304 5.71244851-5.7129629 5.71244851-3.1347737 0-5.781893-2.57767485-5.781893-5.71244851m11.4948559 14.21193411v26.1244856c0 9.4742799-7.5236625 17.2073046-16.99845677 17.276749-3.13477366-.0694444-5.64300411-2.5771605-5.64300411-5.7129629 0-3.2042182 2.5776749-5.7813787 5.781893-5.7813787h-.27880658c3.13528806 0 5.64351856-2.5082304 5.64351856-5.7824074v-26.1244856c0-3.2052469 2.6471193-5.7824074 5.781893-5.7824074 3.2047325 0 5.7129629 2.5771605 5.7129629 5.7824074" mask="url(#a)" transform="translate(0 1)"/><path d="m29.6082305 7.5909465c0-3.2042181 2.5082304-5.78240741 5.7124485-5.78240741 3.2047325 0 5.712963 2.57818931 5.712963 5.78240741 0 3.1347737-2.5082305 5.7124486-5.712963 5.7124486-3.2042181 0-5.7124485-2.5776749-5.7124485-5.7124486"/><path d="m41.033642 21.5230453v23.3384773c0 3.1342593-2.5082305 5.7124486-5.7124486 5.7124486-3.2047325 0-5.7129629-2.5781893-5.7129629-5.7124486v-23.3384773c0-3.1347737 2.5082304-5.7124486 5.7129629-5.7124486 3.2042181 0 5.7124486 2.5776749 5.7124486 5.7124486"/><path d="m65.4863683 38.9286008c-2.9403292 0-5.4053498-2.1723251-5.7932099-4.9511317-.0298354-.2474279-.0591563-.4953703-.0591563-.7618312s.0293209-.5144033.0591563-.7618313c.3878601-2.779321 2.8528807-4.9511317 5.7932099-4.9511317 3.1347737 0 5.7119342 2.5776749 5.7119342 5.7124486h.0699588v.0010288h-.0699588c0 3.1342592-2.5771605 5.7124485-5.7119342 5.7124485zm17.4146091-5.7129629.0010288-.0005144h-.002572c-.0056585 0-.0663581-.0020577-.0663581-.0689301v-11.5643004-.0010288c0-3.2042181-2.6476337-5.7813786-5.7829218-5.7813786-1.2962963 0-2.4223251.3806584-3.3513374 1.0699588-.2788066.1975309-.5401235.4176955-.7788066.6604939-2.7885803-1.6610083-7.433642-1.7304527-7.433642-1.7304527-3.1522634 0-6.1023662.8307613-8.651749 2.2777778-.1358024.0498971-.2716049.0997942-.4048353.1599794l-1.1846708.7664609c-3.9377572 2.8127572-6.6352881 7.3106996-7.149177 12.3822016-.0046296.0514404-.0087448.1033951-.0138889.1548354-.0221193.2386832-.0426954.4768519-.0545267.718107-.0102881.1872428-.0133745.3765432-.0180041.5653293-.0015432.1075102-.0092593.2139917-.0092593.3220164v.0689301.0010288.06893c0 .1080247.0077161.2139918.0092593.3220165.0046296.1882716.007716.3780864.0180041.5653292.0118313.2407407.0324074.4794239.0545267.718107.0051441.0514403.0092593.103395.0138889.154321.5138889 5.0720164 3.2114198 9.5694444 7.149177 12.3822016l1.1846708.7664609c.1332304.0601852.2690329.1100823.4048353.1604938 2.5493828 1.4470165 5.4994856 2.2777778 8.651749 2.2777778 0 0 4.6450617-.0694444 7.433642-1.7309671.2386831.2433128.5.462963.7788066.6610083.9290123.6893004 2.0550411 1.0699588 3.3513374 1.0699588 3.1352881 0 5.7829218-2.5771605 5.7829218-5.781893v-.0005144-11.5643004c0-.0668724.0606996-.06893.0663581-.06893h.002572z"/><path d="m124.703549 33.1571502v11.6342593c0 3.2047325-2.578189 5.7824074-5.782407 5.7824074-3.204733 0-5.781893-2.5776749-5.781893-5.7824074v-11.6342593c0-3.2042181-2.648148-5.7813786-5.852366-5.7813786-3.204733 0-5.782408 2.5771605-5.782408 5.7813786v11.6342593c0 3.2047325-2.5771602 5.7824074-5.7818927 5.7824074s-5.8518518-2.5776749-5.8518518-5.7824074v-11.6342593c0-9.6136831 7.8024691-17.4156379 17.4161525-17.4156379 9.614197 0 17.416666 7.8019548 17.416666 17.4156379"/></g><path d="m189.841358 33.2272119v11.6342593c0 3.1342593-2.647119 5.7124486-5.851852 5.7124486-3.204732 0-5.782407-2.5781893-5.782407-5.7124486v-11.6342593c0-3.2047325-2.647634-5.8513374-5.851852-5.8513374-3.204733 0-5.851338 2.6466049-5.851338 5.8513374v11.6342593c0 3.1342593-2.578189 5.7124486-5.782407 5.7124486-3.205247 0-5.851852-2.5781893-5.851852-5.7124486v-11.6342593c0-3.2047325-2.50823-5.8513374-5.712963-5.8513374-3.204218 0-5.851852 2.6466049-5.851852 5.8513374v11.6342593c0 3.1342593-2.577675 5.7124486-5.781893 5.7124486-3.204732 0-5.852366-2.5781893-5.852366-5.7124486v-11.6342593c0-9.6836419 7.872428-17.4855967 17.486111-17.4855967 4.458848 0 8.499486 1.6712963 11.564815 4.4583334 3.065329-2.7870371 7.175412-4.4583334 11.633745-4.4583334 9.613683 0 17.486111 7.8719136 17.486111 17.4855967" fill="#096dd9"/><path d="m196.810442 33.1571502v-11.6342593c0-3.2042181 2.577675-5.7813786 5.782408-5.7813786 3.204732 0 5.781893 2.5771605 5.781893 5.7813786v11.6342593c0 3.2047325 2.647634 5.7824074 5.851852 5.7824074 3.204732 0 5.782921-2.5776749 5.782921-5.7824074v-11.6342593c0-3.2042181 2.577161-5.7813786 5.781893-5.7813786 3.204219 0 5.852367 2.5771605 5.852367 5.7813786v11.6342593c0 9.6147119-7.802984 17.4166667-17.417181 17.4166667-9.613169 0-17.416153-7.8019548-17.416153-17.4166667" fill="#096dd9"/></g></svg>

<?xml version="1.0" encoding="UTF-8"?>
<svg width="232px" height="65px" viewBox="0 0 232 65" version="1.1" xmlns="http://www.w3.org/2000/svg" xmlns:xlink="http://www.w3.org/1999/xlink">
    <title>opencla logo尺寸备份</title>
    <defs>
        <polygon id="path-1" points="0 0.459670782 22.641358 0.459670782 22.641358 63.8552469 0 63.8552469"></polygon>
    </defs>
    <g id="页面-1" stroke="none" stroke-width="1" fill="none" fill-rule="evenodd">
        <g id="jianmuLOGO" transform="translate(-233.000000, -190.000000)">
            <g id="编组-5" transform="translate(233.000000, 190.000000)">
                <g id="编组" transform="translate(0.000000, 1.000000)">
                    <mask id="mask-2" fill="white">
                        <use xlink:href="#path-1"></use>
                    </mask>
                    <g id="Clip-4"></g>
                    <path d="M11.1465021,6.24207819 C11.1465021,3.03734568 13.7936214,0.459670782 16.9283951,0.459670782 C20.1331276,0.459670782 22.641358,3.03734568 22.641358,6.24207819 C22.641358,9.37685185 20.1331276,11.9545267 16.9283951,11.9545267 C13.7936214,11.9545267 11.1465021,9.37685185 11.1465021,6.24207819 M22.641358,20.4540123 L22.641358,46.5784979 C22.641358,56.0527778 15.1176955,63.7858025 5.64290123,63.8552469 C2.50812757,63.7858025 -0.000102880658,61.2780864 -0.000102880658,58.142284 C-0.000102880658,54.9380658 2.57757202,52.3609053 5.78179012,52.3609053 L5.50298354,52.3609053 C8.6382716,52.3609053 11.1465021,49.8526749 11.1465021,46.5784979 L11.1465021,20.4540123 C11.1465021,17.2487654 13.7936214,14.6716049 16.9283951,14.6716049 C20.1331276,14.6716049 22.641358,17.2487654 22.641358,20.4540123" id="Fill-3" fill="#012C53" mask="url(#mask-2)"></path>
                </g>
                <path d="M29.6082305,7.5909465 C29.6082305,4.3867284 32.1164609,1.80853909 35.320679,1.80853909 C38.5254115,1.80853909 41.033642,4.3867284 41.033642,7.5909465 C41.033642,10.7257202 38.5254115,13.3033951 35.320679,13.3033951 C32.1164609,13.3033951 29.6082305,10.7257202 29.6082305,7.5909465" id="Fill-5" fill="#012C53"></path>
                <path d="M41.033642,21.5230453 L41.033642,44.8615226 C41.033642,47.9957819 38.5254115,50.5739712 35.3211934,50.5739712 C32.1164609,50.5739712 29.6082305,47.9957819 29.6082305,44.8615226 L29.6082305,21.5230453 C29.6082305,18.3882716 32.1164609,15.8105967 35.3211934,15.8105967 C38.5254115,15.8105967 41.033642,18.3882716 41.033642,21.5230453" id="Fill-7" fill="#012C53"></path>
                <path d="M65.4863683,38.9286008 C62.5460391,38.9286008 60.0810185,36.7562757 59.6931584,33.9774691 C59.663323,33.7300412 59.6340021,33.4820988 59.6340021,33.2156379 C59.6340021,32.949177 59.663323,32.7012346 59.6931584,32.4538066 C60.0810185,29.6744856 62.5460391,27.5026749 65.4863683,27.5026749 C68.621142,27.5026749 71.1983025,30.0803498 71.1983025,33.2151235 L71.2682613,33.2151235 L71.2682613,33.2161523 L71.1983025,33.2161523 C71.1983025,36.3504115 68.621142,38.9286008 65.4863683,38.9286008 L65.4863683,38.9286008 Z M82.9009774,33.2156379 L82.9020062,33.2151235 L82.8994342,33.2151235 C82.8937757,33.2151235 82.8330761,33.2130658 82.8330761,33.1461934 L82.8330761,21.581893 L82.8330761,21.5808642 C82.8330761,18.3766461 80.1854424,15.7994856 77.0501543,15.7994856 C75.753858,15.7994856 74.6278292,16.180144 73.6988169,16.8694444 C73.4200103,17.0669753 73.1586934,17.2871399 72.9200103,17.5299383 C70.13143,15.86893 65.4863683,15.7994856 65.4863683,15.7994856 C62.3341049,15.7994856 59.3840021,16.6302469 56.8346193,18.0772634 C56.6988169,18.1271605 56.5630144,18.1770576 56.429784,18.2372428 L55.2451132,19.0037037 C51.307356,21.8164609 48.6098251,26.3144033 48.0959362,31.3859053 C48.0913066,31.4373457 48.0871914,31.4893004 48.0820473,31.5407407 C48.059928,31.7794239 48.0393519,32.0175926 48.0275206,32.2588477 C48.0172325,32.4460905 48.0141461,32.6353909 48.0095165,32.824177 C48.0079733,32.9316872 48.0002572,33.0381687 48.0002572,33.1461934 L48.0002572,33.2151235 L48.0002572,33.2161523 L48.0002572,33.2850823 C48.0002572,33.393107 48.0079733,33.4990741 48.0095165,33.6070988 C48.0141461,33.7953704 48.0172325,33.9851852 48.0275206,34.172428 C48.0393519,34.4131687 48.059928,34.6518519 48.0820473,34.890535 C48.0871914,34.9419753 48.0913066,34.99393 48.0959362,35.044856 C48.6098251,40.1168724 51.307356,44.6143004 55.2451132,47.4270576 L56.429784,48.1935185 C56.5630144,48.2537037 56.6988169,48.3036008 56.8346193,48.3540123 C59.3840021,49.8010288 62.3341049,50.6317901 65.4863683,50.6317901 C65.4863683,50.6317901 70.13143,50.5623457 72.9200103,48.900823 C73.1586934,49.1441358 73.4200103,49.363786 73.6988169,49.5618313 C74.6278292,50.2511317 75.753858,50.6317901 77.0501543,50.6317901 C80.1854424,50.6317901 82.8330761,48.0546296 82.8330761,44.8498971 L82.8330761,44.8493827 L82.8330761,33.2850823 C82.8330761,33.2182099 82.8937757,33.2161523 82.8994342,33.2161523 L82.9020062,33.2161523 L82.9009774,33.2156379 Z" id="Fill-9" fill="#012C53"></path>
                <path d="M124.703549,33.1571502 L124.703549,44.7914095 C124.703549,47.996142 122.12536,50.5738169 118.921142,50.5738169 C115.716409,50.5738169 113.139249,47.996142 113.139249,44.7914095 L113.139249,33.1571502 C113.139249,29.9529321 110.491101,27.3757716 107.286883,27.3757716 C104.08215,27.3757716 101.504475,29.9529321 101.504475,33.1571502 L101.504475,44.7914095 C101.504475,47.996142 98.9273148,50.5738169 95.7225823,50.5738169 C92.5178498,50.5738169 89.8707305,47.996142 89.8707305,44.7914095 L89.8707305,33.1571502 C89.8707305,23.5434671 97.6731996,15.7415123 107.286883,15.7415123 C116.90108,15.7415123 124.703549,23.5434671 124.703549,33.1571502" id="Fill-11" fill="#012C53"></path>
                <path d="M189.841358,33.2272119 L189.841358,44.8614712 C189.841358,47.9957305 187.194239,50.5739198 183.989506,50.5739198 C180.784774,50.5739198 178.207099,47.9957305 178.207099,44.8614712 L178.207099,33.2272119 C178.207099,30.0224794 175.559465,27.3758745 172.355247,27.3758745 C169.150514,27.3758745 166.503909,30.0224794 166.503909,33.2272119 L166.503909,44.8614712 C166.503909,47.9957305 163.92572,50.5739198 160.721502,50.5739198 C157.516255,50.5739198 154.86965,47.9957305 154.86965,44.8614712 L154.86965,33.2272119 C154.86965,30.0224794 152.36142,27.3758745 149.156687,27.3758745 C145.952469,27.3758745 143.304835,30.0224794 143.304835,33.2272119 L143.304835,44.8614712 C143.304835,47.9957305 140.72716,50.5739198 137.522942,50.5739198 C134.31821,50.5739198 131.670576,47.9957305 131.670576,44.8614712 L131.670576,33.2272119 C131.670576,23.54357 139.543004,15.7416152 149.156687,15.7416152 C153.615535,15.7416152 157.656173,17.4129115 160.721502,20.1999486 C163.786831,17.4129115 167.896914,15.7416152 172.355247,15.7416152 C181.96893,15.7416152 189.841358,23.6135288 189.841358,33.2272119" id="Fill-13" fill="#096DD9"></path>
                <path d="M196.810442,33.1571502 L196.810442,21.5228909 C196.810442,18.3186728 199.388117,15.7415123 202.59285,15.7415123 C205.797582,15.7415123 208.374743,18.3186728 208.374743,21.5228909 L208.374743,33.1571502 C208.374743,36.3618827 211.022377,38.9395576 214.226595,38.9395576 C217.431327,38.9395576 220.009516,36.3618827 220.009516,33.1571502 L220.009516,21.5228909 C220.009516,18.3186728 222.586677,15.7415123 225.791409,15.7415123 C228.995628,15.7415123 231.643776,18.3186728 231.643776,21.5228909 L231.643776,33.1571502 C231.643776,42.7718621 223.840792,50.5738169 214.226595,50.5738169 C204.613426,50.5738169 196.810442,42.7718621 196.810442,33.1571502" id="Fill-15" fill="#096DD9"></path>
            </g>
        </g>
    </g>
</svg>
